cached_logos/i-python.svg

<svg id="Layer_1" data-name="Layer 1" xmlns="http://www.w3.org/2000/svg" viewBox="9.010519999999929 14.778189999999995 648.96 450.32"><defs><style>.cls-1{isolation:isolate;}.cls-2{fill:#020202;}.cls-3{fill:#2a2a2a;}.cls-4{fill:#3067ab;}</style></defs><title>iPhython</title><g class="cls-1"><path class="cls-2" d="M21.94824,210.93164H67.64746V46.73047H21.94824V24.04883H136.898V46.73047H91.19824V210.93164H136.898v22.68164H21.94824Z"/><path class="cls-2" d="M192.12891,24.04883h55.5122c40.65284,0,68.12891,15.65332,68.12891,61.65527,0,44.40479-27.75635,64.8501-68.12891,64.8501H215.67969v83.05908H192.12891ZM244.8374,128.83105c31.96192,0,47.38184-13.417,47.38184-43.127,0-30.02881-15.7002-39.93213-47.38184-39.93213H215.67969v83.05908Z"/></g><g class="cls-1"><path class="cls-3" d="M28.94824,409.31641H52.773V323.71H28.94824V311.88477H88.87549V323.71H65.05078v85.60645H88.87549V421.1416H28.94824Z"/><path class="cls-3" d="M121.32275,311.88477h28.94043c21.19385,0,35.51807,8.16113,35.51807,32.14453,0,23.15039-14.47021,33.80957-35.51807,33.80957H133.60059V421.1416H121.32275Zm27.479,54.6289c16.6626,0,24.70166-6.99512,24.70166-22.48437,0-15.65625-8.18506-20.81934-24.70166-20.81934H133.60059v43.30371Z"/><path class="cls-3" d="M207.55908,454.28516,210.044,443.293a20.25189,20.25189,0,0,0,6.43115,1.166c9.939,0,15.93164-7.1621,19.43994-17.15527l2.04639-5.99512-33.03321-81.11035h12.27783L234.45312,384.834c2.77735,7.16114,5.84668,15.65528,8.77,23.4834h.58448c2.48486-7.66113,5.2622-16.15527,7.60058-23.4834l15.34717-44.63574h11.69336l-31.42529,87.60547c-5.26221,15.98828-13.88574,28.14649-30.10987,28.14649A26.59787,26.59787,0,0,1,207.55908,454.28516Z"/><path class="cls-3" d="M319.228,389.66406V351.35742h-20.1709V341.03125l20.60937-.833,1.60791-25.98144h10.085v25.98144h34.7871v11.15918h-34.7871v38.47266c0,14.49023,4.23876,21.98437,17.97851,21.98437a41.74794,41.74794,0,0,0,16.95508-3.66406l2.63086,10.16016c-6.43115,2.66406-13.30127,4.83007-22.21729,4.83007C325.95166,423.14062,319.228,409.64941,319.228,389.66406Z"/><path class="cls-3" d="M394.063,302.55859h12.13135v32.31055l-.73047,19.15332h.43847c7.16211-8.99414,15.49317-15.82226,26.45557-15.82226,16.80908,0,24.55566,11.32519,24.55566,32.64355V421.1416H444.78174V372.67578c0-15.32226-4.67725-22.48437-16.22412-22.48437-8.47754,0-14.17774,4.83007-22.36328,14.49023v56.46H394.063Z"/><path class="cls-3" d="M480.59131,380.83691c0-27.14746,16.37012-42.63671,35.07861-42.63671,18.709,0,35.08008,15.48925,35.08008,42.63671,0,26.81446-16.37109,42.30371-35.08008,42.30371C496.96143,423.14062,480.59131,407.65137,480.59131,380.83691Zm57.73486,0c0-18.65429-9.0625-31.1455-22.65625-31.1455-13.59277,0-22.65478,12.49121-22.65478,31.1455,0,18.48633,9.062,30.81153,22.65478,30.81153C529.26367,411.64844,538.32617,399.32324,538.32617,380.83691Z"/><path class="cls-3" d="M576.7666,340.19824h9.93945l1.02344,13.65723h.585c7.4541-8.82715,15.63867-15.65527,26.74805-15.65527,16.80859,0,24.55469,11.32519,24.55469,32.64355V421.1416H627.48633V372.67578c0-15.32226-4.67774-22.48437-16.22461-22.48437-8.47754,0-14.17774,4.83007-22.36328,14.49023v56.46H576.7666Z"/></g><g class="cls-1"><path class="cls-4" d="M362.71045,52.27393h52.88916v13.188H379.207V219.73145h36.39258V232.919H362.71045Z"/></g><path d="M433.23291,228.21875l3.12451-13.82031a25.44648,25.44648,0,0,0,8.08594,1.46582c12.49707,0,20.03174-9.00391,24.44238-21.56738l2.57276-7.53907L429.9248,84.78223h15.4375l21.68555,56.11816c3.4917,9.00391,7.35108,19.68359,11.02686,29.52539h.73486c3.124-9.63281,6.61621-20.312,9.55664-29.52539L507.6626,84.78223h14.70263L482.85254,194.9248c-6.61572,20.10157-17.4585,35.3877-37.85791,35.3877A33.448,33.448,0,0,1,433.23291,228.21875Z"/><g class="cls-1"><path class="cls-4" d="M579.916,231.4668H527.02637V218.2793H563.419V64.00977H527.02637V50.82227H579.916Z"/></g><circle class="cls-4" cx="630.87515" cy="96.60073" r="13.85073"/><circle class="cls-4" cx="630.87515" cy="186.54883" r="13.85073"/></svg>

<svg xmlns="http://www.w3.org/2000/svg" role="img" viewBox="9.04 11.54 647.92 456.42"><title>IPython logo</title><defs><style>.cls-1{isolation:isolate}.cls-4{fill:#3067ab}</style></defs><g class="cls-1"><path fill="#020202" d="M21.948 210.932h45.7V46.73h-45.7V24.05h114.95v22.68h-45.7v164.202h45.7v22.681H21.948zM192.129 24.049h55.512c40.653 0 68.129 15.653 68.129 61.655 0 44.405-27.756 64.85-68.129 64.85H215.68v83.06h-23.551zm52.708 104.782c31.962 0 47.382-13.417 47.382-43.127 0-30.029-15.7-39.932-47.382-39.932H215.68v83.059z"/></g><g class="cls-1"><path fill="#2a2a2a" d="M28.948 409.316h23.825V323.71H28.948v-11.825h59.927v11.825H65.051v85.606h23.824v11.826H28.948zm92.375-97.431h28.94c21.194 0 35.518 8.16 35.518 32.144 0 23.15-14.47 33.81-35.518 33.81h-16.662v43.303h-12.278zm27.479 54.629c16.662 0 24.701-6.995 24.701-22.485 0-15.656-8.185-20.819-24.701-20.819H133.6v43.304zm58.758 87.771l2.484-10.992a20.252 20.252 0 0 0 6.431 1.166c9.94 0 15.932-7.162 19.44-17.155l2.046-5.995-33.033-81.11h12.278l17.247 44.635c2.777 7.161 5.847 15.655 8.77 23.483h.585c2.484-7.66 5.262-16.155 7.6-23.483l15.347-44.636h11.694l-31.426 87.606c-5.262 15.988-13.885 28.146-30.11 28.146a26.598 26.598 0 0 1-9.354-1.665zm111.668-64.621v-38.307h-20.17v-10.326l20.608-.833 1.608-25.981h10.085v25.981h34.787v11.16H331.36v38.472c0 14.49 4.24 21.984 17.979 21.984a41.748 41.748 0 0 0 16.955-3.664l2.63 10.16c-6.43 2.665-13.3 4.83-22.216 4.83-20.755 0-27.479-13.49-27.479-33.476zm74.835-87.105h12.131v32.31l-.73 19.153h.438c7.162-8.994 15.494-15.822 26.456-15.822 16.809 0 24.556 11.325 24.556 32.644v50.298h-12.132v-48.466c0-15.322-4.678-22.485-16.224-22.485-8.478 0-14.178 4.83-22.364 14.49v56.46h-12.131zm86.528 78.278c0-27.148 16.37-42.637 35.079-42.637s35.08 15.49 35.08 42.637c0 26.814-16.371 42.304-35.08 42.304s-35.079-15.49-35.079-42.304zm57.735 0c0-18.654-9.062-31.146-22.656-31.146-13.593 0-22.655 12.492-22.655 31.146 0 18.486 9.062 30.811 22.655 30.811 13.594 0 22.656-12.325 22.656-30.811zm38.441-40.639h9.939l1.023 13.657h.585c7.455-8.827 15.64-15.655 26.749-15.655 16.808 0 24.554 11.325 24.554 32.644v50.298h-12.13v-48.466c0-15.322-4.678-22.485-16.225-22.485-8.478 0-14.178 4.83-22.364 14.49v56.46h-12.131z"/></g><g class="cls-1"><path d="M362.71 52.274h52.89v13.188h-36.393v154.27H415.6v13.187h-52.89z" class="cls-4"/></g><path d="M433.233 228.219l3.124-13.82a25.446 25.446 0 0 0 8.086 1.465c12.497 0 20.032-9.004 24.443-21.567l2.572-7.54-41.533-101.975h15.437l21.686 56.118c3.492 9.004 7.35 19.684 11.027 29.526h.735c3.124-9.633 6.616-20.312 9.556-29.526l19.297-56.118h14.702l-39.512 110.143c-6.616 20.101-17.459 35.387-37.858 35.387a33.448 33.448 0 0 1-11.762-2.093z"/><g class="cls-1"><path d="M579.916 231.467h-52.89v-13.188h36.393V64.01h-36.393V50.823h52.89z" class="cls-4"/></g><circle cx="630.875" cy="96.601" r="13.851" class="cls-4"/><circle cx="630.875" cy="186.549" r="13.851" class="cls-4"/></svg>
